X:1
T:Kremser, 12.11.12.11
T:Kremser, 12.11.12.11
T:16th Century Dutch melody
T:Public Domain Courtesy of the Cyber Hymnal™
C:16th Century Dutch melody
Z:Public Domain
Z:Courtesy of the Cyber Hymnal™
%%score ( 1 2 ) ( 3 4 )
L:1/8
Q:1/4=118
M:3/4
K:D
V:1 treble 
V:2 treble 
V:3 bass 
V:4 bass 
V:1
 [DA][DA] | [DA]3 [DB] [DA]2 | [DF]2 [DG]2 [DA]2 | [DG]3 [DF] [CE]2 | [DF]2 D2 [FA][FA] | %5
 [EA]3 [EB] [Ec]2 | d3 [Ee] [Ec]2 | [FB]3 [FA] [^GB]2 | [EA]4 [EA][EA] | [EA]3 [EB] [Ec]2 | %10
 [Dd]2 [DA]2 [DA]2 | A3 B [CG][CA] | [DF]2 D2 D2 | [DG]3 [DA] [DB][EG] | A3 G [DF]-[DF] | %15
 [B,G]2 [CE]3 D | D4 |] %17
V:2
 x2 | x6 | x6 | x6 | x6 | x6 | F2 E- x3 | x6 | x6 | x6 | x6 | D4 x2 | x6 | x6 | E4 x2 | x6 | D4 |] %17
V:3
 [D,F,][D,F,] | [D,F,]3 [D,G,] [D,F,]2 | [D,A,]2 [E,A,]2 [F,A,]2 | [E,B,]3 [E,B,] A,2 | %4
 [D,A,]2 [D,F,]2 [D,A,][D,A,] | [C,A,]3 [C,A,] [C,A,]2 | [B,,A,]2 [E,^G,]2 A,2 | %7
 [B,,D]3 [B,,D] [E,D]2 | [A,C]4 [A,C][A,C] | [G,C]3 [G,B,] A,2 | [F,A,]2 [F,A,]2 [F,A,]2 | %11
 [E,B,]4 A,A, | [D,A,]2 [D,F,]2 [D,F,]2 | [B,,G,]3 [A,,F,] [G,,G,][B,,G,] | E,2 A,2 [D,A,]-[D,A,] | %15
 [E,G,]2 [A,,G,]3 [D,F,] | [D,F,]4 |] %17
V:4
 x2 | x6 | x6 | x4 A,2 | x6 | x6 | x4 A,2 | x6 | x6 | x4 G,2 | x6 | x6 | x6 | x6 | C,4 x2 | x6 | %16
 x4 |] %17

